!!!COM:	Bach, Johann Sebastian
!!!CDT:	1685/02/21/-1750/07/28/
!!!OTL@@DE:	Du lebensf&uuml;rst, Herr Jesu Christ
!!!SCT:	BWV 43/11
!!!PC#:	102
!!!AGN:	chorale
**kern	**kern	**kern	**kern
*ICvox	*ICvox	*ICvox	*ICvox
*Ibass	*Itenor	*Ialto	*Isoprn
*I"Bass	*I"Tenor	*I"Alto	*I"Soprano
*>[A,A,B]	*>[A,A,B]	*>[A,A,B]	*>[A,A,B]
*>norep[A,B]	*>norep[A,B]	*>norep[A,B]	*>norep[A,B]
*>A	*>A	*>A	*>A
*clefF4	*clefGv2	*clefG2	*clefG2
*k[f#]	*k[f#]	*k[f#]	*k[f#]
*G:	*G:	*G:	*G:
*M3/4	*M3/4	*M3/4	*M3/4
*MM100	*MM100	*MM100	*MM100
=1-	=1-	=1-	=1-
4G	4B	4d	4g
4E	4B	4e	4g
4D	[4d	4f#	4a
=2	=2	=2	=2
4.G	4.d]	2.g	4.b
8A	8c	.	8cc
4B	4B	.	4dd
=3	=3	=3	=3
4G	4B	4g	4dd
4A	4A	4e	4dd
4AA	4A	4e	4cc#
=4	=4	=4	=4
2D;	2A;	2f#;	2dd;
4G	4G	4g	4b
=5	=5	=5	=5
2C	2G	2e	2cc
4GG	4G	4d	4b
=6	=6	=6	=6
2.D	2.F#	2.d	2.a
=7	=7	=7	=7
4E	4E	4B	4g
2D	2A	2d	2f#
=8	=8	=8	=8
2.GG;	2.B;	2.d;	2.g;
=9:|!	=9:|!	=9:|!	=9:|!
*>B	*>B	*>B	*>B
4D	4F#	4d	4a
4D	4F#	4d	4a
4BB	4G#	4d	4b
=10	=10	=10	=10
2AA	2A	2c	2cc
4C	4A	4e	4cc
=11	=11	=11	=11
2E	4.G#	2e	4.b
.	8A	.	8a
4EE	4G#	4e	4b
=12	=12	=12	=12
2.AA;	2.A;	2.c;	2.a;
=13	=13	=13	=13
4E	4G#	4e	4b
4E	4B	4g#	4b
4E	4e	4g#	4b
=14	=14	=14	=14
4.A	4.e	2.a	4.cc
8B	8d	.	8dd
4c	4c	.	4ee
=15	=15	=15	=15
4A	4c	4a	4ee
4B	4B	4f#	4dd#
4B	4B	4f#	4dd#
=16	=16	=16	=16
2E;	2B;	2g;	2ee;
4D	4dnX	4a	4ff#
=17	=17	=17	=17
2G	2d	2b	2gg
4G	4d	4g	4b
=18	=18	=18	=18
2C	2e	2g	2cc
4GG	4d	4g	4b
=19	=19	=19	=19
4D	4d	4f#	4a
4D;	4d;	4f#;	4a;
4BB	4d	4g	4dd
=20	=20	=20	=20
4.C	4.c	4.g	4.ee
8D	8A	8f#	8dd
4E	4G	4e	4cc
=21	=21	=21	=21
4G	4G	4d	4b
2D	4G	2d	2a
.	4F#	.	.
=22	=22	=22	=22
2.GG;	2.B;	2.d;	2.g;
==	==	==	==
*-	*-	*-	*-
!!!hum2abc: -Q ''
!!!title: @{PC#}. @{OTL@@DE}
!!!YOR1: 371 vierstimmige Choralges&auml;nge von Johann Sebastian Bach, 
!!!YOR2: 4th ed. by Alfred D&ouml;rffel (Leipzig: Breitkopf und H&auml;rtel, 
!!!YOR2: c.1875). 178 pp. Plate "V.A.10".  reprint: J.S. Bach, 371 Four-Part 
!!!YOR4: Chorales (New York: Associated Music Publishers, Inc., c.1940).
!!!SMS: B&H, 4th ed, Alfred D&ouml;rffel, c.1875, plate V.A.10
!!!EED:  Craig Stuart Sapp
!!!EEV:  2009/05/22
